X:1     %Music
T:Botany Bay
B:Singing Together, Spring 1968, BBC Publications
F:http://www.folkinfo.org/songs
M:3/4     %Meter
L:1/8     %
K:D
DE |F2 A2 A2 |E2 G2 G2 |GE D4-|D2z2
w:Fare -well to old Eng-land for ev-*er * 
 AA |F2 A2 d2 |G2 B2 d2 |A6-|A2z2
w:Fare_ well to my old pals as well, * 
 AA |d2 c2 d2 |e2 d2 B2 |AG D4-|D2
w:Fare-*well to the well-known Old Bail-*ley *
D2 E2 |F2 A2 A2 |E2 G2 F2 |D6-|D2z2 
w:Where I once used to look such a swell. *
DE |F2 A2 A2 |E2 G2 G2 |FE D4-|D2z2 
w:Sing-ing too-ral, li-oo-ral li-ad-di-ty *
AA |F2 A2 d2 |G2 B2 d2 |A6-|A2z2
w:Sing-ing too-ral, li-oo-ral, li-ay, *
 AA |d2 c2 d2 |e2 d2 B2 |AF D4-|D2z2 
w:Sing-ing too-ral, li-oo-ral, li-ad-di-ty, *
DE |F2 A2 A2 |E2 G2 F2 |D6-|D2z4 |]
w:For we're bound for the Bot-a-ny Bay. *